packages/icon/src/svg/social-facebook.icon.svg

<svg width="24" height="24" viewBox="0 0 24 24" fill="none" xmlns="http://www.w3.org/2000/svg">
<path fill-rule="evenodd" clip-rule="evenodd" d="M19 4H16.5C14.57 4 13 5.56 13 7.5V10H11V13H13V20H16V13H19V10H16V8C16 7.44772 16.4477 7 17 7H19V4ZM21 2C21.5523 2 22 2.44772 22 3V21C22 21.5523 21.5523 22 21 22H3C2.44772 22 2 21.5523 2 21V3C2 2.44772 2.44772 2 3 2H21Z" fill="white"/>
</svg>

<svg aria-label="social facebook icon" viewBox="0 0 24 24"><path fill-rule="evenodd" clip-rule="evenodd" d="M19 4h-2.5C14.57 4 13 5.56 13 7.5V10h-2v3h2v7h3v-7h3v-3h-3V8a1 1 0 011-1h2V4zm2-2a1 1 0 011 1v18a1 1 0 01-1 1H3a1 1 0 01-1-1V3a1 1 0 011-1h18z"/></svg>
